X:60
T: Drover's Lads
S: B.Breathnach: "Ceol Rince na hEireann" II/16 (gan ainm)
Z: B.Black
L: 1/8
M: 6/8
R: jig
K: G
G3 g3|fg/a/f g2e|dBB BAB|dBB BAB|
G3 g3|fg/a/f g2e|dBA A2B|1 dBA ABA :|2\
dBA A2||
B/d/|e2e ded|c2c dcB|dBB BAB|dBB BAB|
e2e ded|c2c dcB|dBA A2B|1 dBA A2 :|2\
dBA ABA||

